!!!COM: Gustav Mahler
!!!CNT: Deutsch
!!!TXO: Deutsch
!!!OTL: "Zu Strassburg auf der Schanz'"
!!!LYR: Des Knaben Wunderhorn
!!!OPR: Des Knaben Wunderhorn, Part 1
!!!ENC: O'Neal Douglas
!!!YOR: CD Sheet Music: Late Romantic German Lieder
!!!YOR: CD Sheet Music, LLC, 2001
!!!ODT: 1890/
!!NB: Vocal melody and text encoded.
**kern	**text
*staff1	*staff1
*clefG2	*
*k[b-e-a-d-]	*
*M4/4	*
*MM88	*
8r	.
=1	=1
1r	.
=2	=2
1r	.
=3	=3
1r	.
=4	=4
2r	.
4r	.
8r	.
{8c	{Zu
=5	=5
8.f	Strass-
16f	-burg
8.f	auf
16f	der
4f	Schanz',
8r	.
8f	da
=6	=6
8f	ging
8f	mein
8g	Trau-
8f	-ern
4c}	an!}
4r	.
=7	=7
2r	.
4r	.
8r	.
{8c	{Das
=8	=8
4c	Alp-
4c	-horn
4c	ho2rt'
(8c	ich
8f)	|
=9	=9
4.an	dru2-
8a	-ben
(8b-	wohl
8a)	|
(8g	an-
8f)	.
=10	=10
(4.g	stim
8an)	|
4g}	-men,}
{(8a	{in's
8b-)	|
=11	=11
8.cc	Va-
16cc	-ter-
8cc	-land
8cc	musst'
8ddn	ich
8cc	hin-
8b-	-u2-
8an	-ber
=12	=12
(4.g	schwim-
8an)	|
4b-	-men,
(8a-	das
8g)	|
=13	=13
4f	ging
8.c	ja
16c	nicht
4c	an,
(8a-	das
8g)	|
=14	=14
4f	ging
8.c	ja
16c	nicht
4c}	an!}
4r	.
=15	=15
1r	.
=16	=16
2r	.
4r	.
8r	.
{8c	{Ein'
=17	=17
4f	Stund'
8.f	in
16f	der
4f	Nacht
8r	.
8f	sie
=18	=18
8f	ha-
8f	-ben
8.g	mich
16f	ge-
4c}	-bracht;}
8r	.
{8cc	{sie
=19	=19
4cc	fu2hr-
8.an	-ten
16a	mich
4a	gleich
8.b-	vor
16cc	des
=20	=20
4dd-	Haupt-
4cc	-mann's
4b-}	Haus!}
8r	.
{8b-	{Ach
=21	=21
4b-	Gott!
8r	.
8b-	Sie
8b-	fisch-
8cc	-ten
8dd-	mich
8ff	im
=22	=22
4ee-	Stro-
(8ee-	-me
8dd-)	|
4cc	aus!
(8dd-	Mit
8cc)	|
=23	=23
4b-	mir
8.f	ist
16f	es
4f	aus,
(8dd-	mit
8cc)	|
=24	=24
4b-	mir
8.f	ist
16f	es
4f}	aus!}
4r	.
=25	=25
1r	.
=26	=26
2r	.
4r	.
8r	.
{8c	{Fru2h
=27	=27
8.g	mor-
16g	-gens
8.g	um
16g	zehn
4g	Uhr
8.g	stellt
16g	man
=28	=28
8.a-	mich
16g	vor's
8.f	Re-
16d-	-gi-
4c}	-ment!}
8r	.
{8a-	{Ich
=29	=29
4.b-	soll
8b-	da
8b-	bit-
8a-	-ten
8g	um
8f	Par-
=30	=30
4e-	-don
8.e-	und
16d-	Par-
4c	-don!
12c	und
12c	ich
12c	be-
=31	=31
8.d-	-komm'
16c	doch
8.B-	mei-
16An	-nen
4B-	Lohn
12dn	und
12d	ich
12d	be-
=32	=32
8.e-	-komm'
16dn	doch
8.c	mei-
16Bn	-nen
4c	Lohn!
(8a-	Das
8g)	.
=33	=33
4.f	weiss
8c	ich
4c	schon,
(8a-	das
8g)	|
=34	=34
4.f	weiss
8c	ich
4c}	schon!}
4r	.
=35	=35
1r	.
=36	=36
1r	.
=37	=37
1r	.
=38	=38
2r	.
4r	.
{(8f	{Ihr
8b-)	.
=39	=39
*k[b-e-]	*
4.b-	Bru2-
8b-	-der
4b-	all'
4cc	zu-
=40	=40
2dd}	-mal,}
4r	.
{(8.f	{ihr
16b-)	.
=41	=41
4dd	Bru2-
(8.cc	-der
16b-)	|
4cc	all'
(8.b-	zu-
16a)	|
=42	=42
2b-}	-mal,}
4r	.
{(8f	{heut'
8ff)	|
=43	=43
4.ff	seht
8ff	ihr
(8ff	mich
8een)	|
(8ff	zum
8gg)	|
=44	=44
4ff	letz-
4een	-ten
4ee-	mal,
(8f	heut
8dd)	|
=45	=45
4.dd	seht
8dd	ihr
(8dd	mich
8cc#)	|
(8dd	zum
8ee-)	|
=46	=46
4dd	letz-
4cc#	-ten
4ccn	mal!
(8f	Der
8b-)	|
=47	=47
4.b-	Hir-
8a	ten
4g	-bub'
8a	ist
8b-	nur
=48	=48
4.cc	schuld
8b-	da-
4a}	-ran!}
4r	.
=49	=49
1r	.
=50	=50
1r	.
=51	=51
1r	.
=52	=52
2r	.
4r	.
{(8f	{Das
8b-)	|
=53	=53
4dd	Alp-
4dd	-horn
4ee-	hat
(8dd	mir's
8cc)	|
=54	=54
(8cc	an-
8b-)	|
(8b-	-ge-
8a)	|
4g	-than
8r	.
8g	das
=55	=55
4.f	hat
8f	mir's
(8f	an-
8cc)	|
(8dd	-ge-
8ee-)	|
=56	=56
2.dd}	-than!}
{(8dd-	{Das
8cc)	|
=57	=57
4.b-	klag'
8f	ich
4f	an,
(8dd-	das
8cc)	|
=58	=58
4.b-	klag'
8f	ich
4f}	an!}
4r	.
=59	=59
1r	.
=60	=60
1r	.
=61	=61
1r	.
==	==
*-	*-
